X:1
T:Si pour t'avoir
T:Jean Le Gendre
T:Source : Livre II de 26 chansons nouvelles à 4 parties---Paris---N.du Chemin---1549. Editor : André Vierendeels (15/02/18). Notes : Original clefs : C1, C3, C4, F4 Note values have been quartered in 3-beat measures Note values have been halved Editorial accidentals above the stave
T:Si pour t'avoir
T:©
T:©
C:Jean Le Gendre
Z:©
%%score [ 1 [ 2 3 ] 4 ]
L:1/8
Q:1/4=120
M:3/4
K:F
V:1 treble nm="Alto" snm="A"
V:2 treble-8 nm="Tenor 1" snm="T 1"
V:3 treble-8 nm="Tenor 2" snm="T 2"
V:4 bass nm="Bass" snm="B"
V:1
 A2 A2 B2 | c4 c2 | c4 B2 |[M:2/2] c2 c2 c2 c2 | A2 A2 F2 A2 | BA AG/F/ G2 F2- | F2 E2 F4 :| %7
w: Si pour t'a-|voir tant|loy- aul-|ment, ay- mé- e|de faict et pen-|cé- * * * * * *|* * e,|
w: Tu as de|dou- leur,|et tour-|ment mon a- my-|tié re- com- pen-|cé- * * * * * *|* * e,|
[M:3/4] F2 F2 G2 | A4 A2 | B4 B2 | A2 A2 z2 | B2 G2 B2 | A4 A2 | G4 G2 | F4 z2 | F2 F2 G2 | A4 A2 | %17
w: doibz ie maul-|di- re|la iour-|né- e,|que com- men-|ça no-|stre'a- my-|tié,|ou t'ap- pe-|ler in-|
w: ||||||||||
 B4 B2 |[M:2/2] A2 Ac B2 A2 | F3 G AGFE | DC F2 F2 E2 |[M:3/4] F4 z2 | F2 F2 G2 | A4 A2 | B4 B2 | %25
w: for- tu-|né- e di- gne de|tou- * * * * *|* * te'i- ni- mi-|tié,|ou t'ap- pe-|ler in-|for- tu-|
w: ||||||||
[M:2/2] A2 Ac B2 A2 | F3 G AGFE | DC F4 E2 | F8 |] %29
w: né- e, di- gne de|tou- te'i- ni- * * *|* * mi- *|tié.|
w: ||||
V:2
 f2 f2 d2 | f4 e2 | f4 d2 |[M:2/2] e8 | z4 z2 f2 | f2 f2 d2 dB | c2 c2 A4 :|[M:3/4] d2 d2 d2 | %8
w: Si pour t'a-|voir tant|loy- aul-|ment,|ay-|mé- e de faict et|pen- cé- e,|doibz ie maul-|
w: Tu as de|dou- leur,|et tour-|ment,|mon|a- my tié re- com-|pen- cé- e,||
 f4 f2 | f4 f2 | f2 f2 z2 |"^b" f2 e2 f2 | f4 f2 | d4 e2 | d4 z2 | d2 d2 d2 | f4 f2 | f4 f2 | %18
w: di- re|la iour-|né- e|que com- men-|ça no-|stre'a- my|tié,|ou tap- pe-|ler in|for- tu-|
w: ||||||||||
[M:2/2] f2 ff B2 c2 | d3 e f4- | f2 d2 c2 c2 |[M:3/4] A4 z2 | d2 d2 d2 | f4 f2 | f4 f2 | %25
w: né- e di- gne de|tou- * *|* te'i- ni- mi-|tié,|ou t'ap- pe-|ler in-|for- tu-|
w: |||||||
[M:2/2] f2 ff B2 c2 | d3 e f4- | f2 d2 c2 c2 | A8 |] %29
w: né- e, di- gne de|tou- * *|* te'i- ni- mi-|tié.|
w: ||||
V:3
 c2 c2 B2 | A4 G2 | A4 B2 |[M:2/2] G4 z2 c2 | c2 c2 A2 A2 | F2 A2 BA AG/F/ | G4 F4 :| %7
w: Si pour t'a-|voir tant|loy- aul-|ment, ay-|mé- e de faict|et pen- cé- * * * *|* e,|
w: Tu as de|dou- leur,|et tour-|ment, mon|a- my- tié re-|com- pen- cé- * * * *|* e,|
[M:3/4] A2 A2 B2 | c4 c2 | d4 d2 | c2 c2 z2 | d2 B2 d2 | c4 A2 | B4 c2 | A4 z2 | A2 A2 B2 | c4 c2 | %17
w: doibz ie maul-|di- re|la iour-|né- e,|que com- men-|ça no-|stre'a- my-|tié,|ou t'ap- pe-|ler in|
w: ||||||||||
 d4 d2 |[M:2/2] c2 c2 z2 c2 | B2 A2 F3 G | A2 B2 G2 G2 |[M:3/4] F4 z2 | A2 A2 B2 | c4 c2 | d4 d2 | %25
w: for- tu-|né- e, di-|gne de tou- *|* te'i- ni- mi-|tié,|ou t'ap- pe-|ler in-|for- tu-|
w: ||||||||
[M:2/2] c2 c2 z2 c2 | B2 A2 F3 G | A2 B2 G2 G2 | F8 |] %29
w: né- e, di-|gne de tou- *|* te'i- ni- mi-|tié.|
w: ||||
V:4
 F,2 F,2 G,2 | F,4 C,2 | F,4 G,2 |[M:2/2] C,8 | z2 F,2 F,2 F,2 | D,2 D,2 B,,2 D,2 | C,4 F,,4 :| %7
w: Si pour t'a-|voir tant|loy- aul-|ment,|ay- mé- e|de faict et pen-|cé- e,|
w: Tu as de|dou- leur,|et tour-|ment,|mon a- my-|tié re- com- pen-|cé- e,|
[M:3/4] D,2 D,2 G,2 | F,4 F,2 | B,,4 B,,2 | F,2 F,2 z2 | B,,2 _E,2 B,,2 | F,4 F,2 | G,4 C,2 | %14
w: doibz ie mail-|di- re|la iour-|né- e,|que com- men-|ça no-|stre'a- my-|
w: |||||||
 D,4 z2 | D,2 D,2 G,2 | F,4 F,2 | B,,4 B,,2 |[M:2/2] F,2 F,2 z2 F,2 | B,,2 D,2 D,3 E, | %20
w: tié,|ou t'ap- pe-|ler in|for- tu-|né- e, di-|gne de tou- *|
w: ||||||
 F,2 B,,2 C,2 C,2 |[M:3/4] F,,4 z2 | D,2 D,2 G,2 | F,4 F,2 | B,,4 B,,2 |[M:2/2] F,2 F,2 z2 F,2 | %26
w: * te'i- ni- mi-|tié,|ou t'ap- pe-|ler in-|for- tu-|né- e, di-|
w: ||||||
 B,,2 D,2 D,3 E, | F,2 B,,2 C,2 C,2 | F,,8 |] %29
w: gne de tou- *|* te'i- ni- mi-|tié.|
w: |||

